X:199
T: ACH ANDREAS HEILGER SCHUTZPATRON
N: B0683
O: Europa, Mitteleuropa, Deutschland, Thueringen, Hessen, Sachsen
R: Scherz - Lied (Echo)
M: 3/4
L: 1/8
K: F
CC | F3FFF | EGC2
CE | G3GFG | A2z2
CC | F3FFF | EGC2
CE | G3GFG | A2z2
AB | c3FGA | G6 | F2z4 | G6 | F2z2

@@@ Tune index: 2417
